public/svg/npm.svg

<svg width="101" height="100" viewBox="0 0 101 100" fill="none" xmlns="http://www.w3.org/2000/svg">
<path d="M0.380615 0H100.381V100H0.380615V0Z" fill="#CC0000"/>
<path d="M50.0406 10.74H11.1206V89.256H50.0366V30.54H69.8366V89.256H89.6366V10.74H50.0406Z" fill="white"/>
</svg>

<svg width="101" height="100" viewBox="0 0 101 100" fill="none" xmlns="http://www.w3.org/2000/svg"><path d="M.38 0h100.001v100h-100V0z" fill="#C00"/><path d="M50.04 10.74H11.12v78.516h38.917V30.54h19.8v58.716h19.8V10.74H50.04z" fill="#fff"/></svg>
